X:2627
T:Polonäs i Dm efter Fredrik Salling
S:efter Fredrik Salling
B:http://www.smus.se/earkiv/fmk/browselarge.php?lang=sw&katalogid=M+155&bildnr=00009
O:Svärdsjö, Dalarna
B:Fredrik Sallings nothäfte
Z:Nils L
M:3/4
L:1/8
R:Polonäs
K:Dm
d2 A2 f2 | ed ^c2 d2 | ef gf ed | cB AB cA | d2 A2 f2 | ed ^c2 d2 | ef gf ed | ^c/d/e/c/ d2 D2 ::
fe fe fa | gf ed eg | fe fe fa | gf ed eg | fe df af | ed/^c/ d2 D2 :|
(:musicend:)
(:music:)
